gama.ui.shared/icons_svg/light/views/tabs/view.outline.svg

<svg height="24.75" viewBox="-602.649 -2973.769 24.75 24.75" width="24.75" xmlns="http://www.w3.org/2000/svg"><path d="m-597.2741-2965.6713c0-.4277.35-.7777.7778-.7777h.77776c.42778 0 .77778.35.77778.7777v.7778c0 .4277-.35.7777-.77778.7777h-.77776c-.4278 0-.7778-.35-.7778-.7777zm4.2778.7778c-.2178 0-.3889-.1712-.3889-.3889 0-.2178.1711-.3889.3889-.3889h9.3333c.2178 0 .3889.1711.3889.3889 0 .2177-.1711.3889-.3889.3889zm-4.2778 3.1111c0-.4278.35-.7778.7778-.7778h.77776c.42778 0 .77778.35.77778.7778v.7777c0 .4277-.35.7777-.77778.7777h-.77776c-.4278 0-.7778-.35-.7778-.7777zm4.2778.7777c-.2178 0-.3889-.1711-.3889-.3888 0-.2178.1711-.3889.3889-.3889h9.3333c.2178 0 .3889.1711.3889.3889 0 .2177-.1711.3888-.3889.3888zm-4.2778 3.1112c0-.4278.35-.7778.7778-.7778h.77776c.42778 0 .77778.35.77778.7778v.7777c0 .4278-.35.7778-.77778.7778h-.77776c-.4278 0-.7778-.35-.7778-.7778zm.7778-7.7778v.7778h.77776v-.7778zm0 3.8889v.7777h.77776v-.7777zm0 3.8889v.7777h.77776v-.7777zm3.5.7777c-.2178 0-.3889-.1712-.3889-.3889s.1711-.3888.3889-.3888h9.3333c.2178 0 .3889.1711.3889.3888s-.1711.3889-.3889.3889z" fill="#5c76a2"/></svg>

<?xml version="1.0" encoding="UTF-8" standalone="no"?>
<!DOCTYPE svg PUBLIC "-//W3C//DTD SVG 1.1//EN" "http://www.w3.org/Graphics/SVG/1.1/DTD/svg11.dtd">
<svg xmlns="http://www.w3.org/2000/svg" xmlns:dc="http://purl.org/dc/elements/1.1/" version="1.1" xmlns:xl="http://www.w3.org/1999/xlink" viewBox="-602.6491 -2973.7685 24.75 24.75" width="24.75" height="24.75">
  <defs/>
  <g id="SOURCES" fill="none" stroke="none" stroke-dasharray="none" fill-opacity="1" stroke-opacity="1">
    <title>SOURCES</title>
    <g id="SOURCES_Light">
      <title>Light</title>
      <g id="Group_12727">
        <g id="Group_9828">
          <title>list-bullet</title>
          <g id="Graphic_9829">
            <path d="M -597.2741 -2965.6713 C -597.2741 -2966.099 -596.9241 -2966.449 -596.4963 -2966.449 L -595.71854 -2966.449 C -595.29076 -2966.449 -594.94076 -2966.099 -594.94076 -2965.6713 L -594.94076 -2964.8935 C -594.94076 -2964.4658 -595.29076 -2964.1158 -595.71854 -2964.1158 L -596.4963 -2964.1158 C -596.9241 -2964.1158 -597.2741 -2964.4658 -597.2741 -2964.8935 Z M -592.9963 -2964.8935 C -593.2141 -2964.8935 -593.3852 -2965.0647 -593.3852 -2965.2824 C -593.3852 -2965.5002 -593.2141 -2965.6713 -592.9963 -2965.6713 L -583.663 -2965.6713 C -583.4452 -2965.6713 -583.2741 -2965.5002 -583.2741 -2965.2824 C -583.2741 -2965.0647 -583.4452 -2964.8935 -583.663 -2964.8935 Z M -597.2741 -2961.7824 C -597.2741 -2962.2102 -596.9241 -2962.5602 -596.4963 -2962.5602 L -595.71854 -2962.5602 C -595.29076 -2962.5602 -594.94076 -2962.2102 -594.94076 -2961.7824 L -594.94076 -2961.0047 C -594.94076 -2960.577 -595.29076 -2960.227 -595.71854 -2960.227 L -596.4963 -2960.227 C -596.9241 -2960.227 -597.2741 -2960.577 -597.2741 -2961.0047 Z M -592.9963 -2961.0047 C -593.2141 -2961.0047 -593.3852 -2961.1758 -593.3852 -2961.3935 C -593.3852 -2961.6113 -593.2141 -2961.7824 -592.9963 -2961.7824 L -583.663 -2961.7824 C -583.4452 -2961.7824 -583.2741 -2961.6113 -583.2741 -2961.3935 C -583.2741 -2961.1758 -583.4452 -2961.0047 -583.663 -2961.0047 Z M -597.2741 -2957.8935 C -597.2741 -2958.3213 -596.9241 -2958.6713 -596.4963 -2958.6713 L -595.71854 -2958.6713 C -595.29076 -2958.6713 -594.94076 -2958.3213 -594.94076 -2957.8935 L -594.94076 -2957.1158 C -594.94076 -2956.688 -595.29076 -2956.338 -595.71854 -2956.338 L -596.4963 -2956.338 C -596.9241 -2956.338 -597.2741 -2956.688 -597.2741 -2957.1158 Z M -596.4963 -2965.6713 L -596.4963 -2964.8935 L -595.71854 -2964.8935 L -595.71854 -2965.6713 Z M -596.4963 -2961.7824 L -596.4963 -2961.0047 L -595.71854 -2961.0047 L -595.71854 -2961.7824 Z M -596.4963 -2957.8935 L -596.4963 -2957.1158 L -595.71854 -2957.1158 L -595.71854 -2957.8935 Z M -592.9963 -2957.1158 C -593.2141 -2957.1158 -593.3852 -2957.287 -593.3852 -2957.5047 C -593.3852 -2957.7224 -593.2141 -2957.8935 -592.9963 -2957.8935 L -583.663 -2957.8935 C -583.4452 -2957.8935 -583.2741 -2957.7224 -583.2741 -2957.5047 C -583.2741 -2957.287 -583.4452 -2957.1158 -583.663 -2957.1158 Z" fill="#5c76a2"/>
          </g>
        </g>
        <g id="Graphic_12713"/>
      </g>
    </g>
  </g>
</svg>
